src/images/footer/facebook_desc.svg

<svg width="33" height="32" viewBox="0 0 33 32" fill="none" xmlns="http://www.w3.org/2000/svg">
<path d="M32.4706 16.0401C32.4706 7.18596 25.2799 0 16.4199 0C7.55987 0 0.369141 7.18596 0.369141 16.0401C0.369141 23.8035 5.89059 30.2677 13.2097 31.7594V20.8521H9.99958V16.0401H13.2097V12.0301C13.2097 8.93434 15.7297 6.41604 18.8275 6.41604H22.8402V11.2281H19.63C18.7472 11.2281 18.0249 11.9499 18.0249 12.8321V16.0401H22.8402V20.8521H18.0249V32C26.1306 31.198 32.4706 24.3649 32.4706 16.0401Z" fill="#3A4551"/>
</svg>

<svg width="33" height="32" fill="none" xmlns="http://www.w3.org/2000/svg"><path d="M32.47 16.04C32.47 7.186 25.28 0 16.42 0S.37 7.186.37 16.04c0 7.764 5.52 14.228 12.84 15.72V20.851H10V16.04h3.21v-4.01a5.622 5.622 0 0 1 5.617-5.614h4.013v4.812h-3.21a1.61 1.61 0 0 0-1.605 1.604v3.208h4.815v4.812h-4.815V32c8.106-.802 14.446-7.635 14.446-15.96Z" fill="#3A4551"/></svg>
